SVG_Azure_All/Disk Access.svg

<?xml version="1.0" encoding="UTF-8" standalone="no"?>
<!-- Generated by Microsoft Visio, SVG Export Disk Access.svg Page-1 -->

<svg
   xmlns:dc="http://purl.org/dc/elements/1.1/"
   xmlns:cc="http://creativecommons.org/ns#"
   xmlns:rdf="http://www.w3.org/1999/02/22-rdf-syntax-ns#"
   xmlns:svg="http://www.w3.org/2000/svg"
   xmlns="http://www.w3.org/2000/svg"
   xmlns:sodipodi="http://sodipodi.sourceforge.net/DTD/sodipodi-0.dtd"
   xmlns:inkscape="http://www.inkscape.org/namespaces/inkscape"
   width="0.78789055in"
   height="0.59060967in"
   viewBox="0 0 56.727937 42.52385"
   xml:space="preserve"
   class="st6"
   version="1.1"
   id="svg55"
   sodipodi:docname="Disk Access.svg"
   style="font-size:12px;overflow:visible;color-interpolation-filters:sRGB;fill:none;fill-rule:evenodd;stroke-linecap:square;stroke-miterlimit:3"
   inkscape:version="0.92.5 (2060ec1f9f, 2020-04-08)"><metadata
   id="metadata59"><rdf:RDF><cc:Work
       rdf:about=""><dc:format>image/svg+xml</dc:format><dc:type
         rdf:resource="http://purl.org/dc/dcmitype/StillImage" /></cc:Work></rdf:RDF></metadata><sodipodi:namedview
   pagecolor="#ffffff"
   bordercolor="#666666"
   borderopacity="1"
   objecttolerance="10"
   gridtolerance="10"
   guidetolerance="10"
   inkscape:pageopacity="0"
   inkscape:pageshadow="2"
   inkscape:window-width="640"
   inkscape:window-height="480"
   id="namedview57"
   showgrid="false"
   inkscape:zoom="1.601301"
   inkscape:cx="37.812042"
   inkscape:cy="28.342428"
   inkscape:window-x="0"
   inkscape:window-y="0"
   inkscape:window-maximized="0"
   inkscape:current-layer="svg55" />
	<style
   type="text/css"
   id="style2">
	<![CDATA[
		.st1 {fill:#5e9624;stroke:none;stroke-linecap:butt;stroke-width:34}
		.st2 {fill:#76bc2d;stroke:none;stroke-linecap:butt;stroke-width:34}
		.st3 {fill:url(#grad0-12);stroke:none;stroke-linecap:butt;stroke-width:34}
		.st4 {fill:#005ba1;stroke:none;stroke-linecap:butt;stroke-width:34}
		.st5 {fill:#0078d4;stroke:none;stroke-linecap:butt;stroke-width:34}
		.st6 {fill:none;fill-rule:evenodd;font-size:12px;overflow:visible;stroke-linecap:square;stroke-miterlimit:3}
	]]>
	</style>

	<defs
   id="Patterns_And_Gradients">
		<linearGradient
   id="grad0-12"
   x1="-2.2505046e-15"
   y1="146.01087"
   x2="28.484322"
   y2="146.01087"
   gradientTransform="scale(1.5786299,0.63346072)"
   gradientUnits="userSpaceOnUse">
			<stop
   offset="0"
   stop-color="#0078d4"
   stop-opacity="1"
   id="stop4" />
			<stop
   offset="0.99"
   stop-color="#127fd9"
   stop-opacity="1"
   id="stop6" />
		</linearGradient>
	</defs>
	<g
   id="g53"
   transform="translate(-34.000133,-34.00045)">
		<title
   id="title10">Page-1</title>
		<g
   id="group5618-1"
   transform="translate(34,-34.0157)">
			<title
   id="title12">Disk Access</title>
			<g
   id="group5619-2">
				<title
   id="title14">Sheet.5619</title>
				<g
   id="shape5620-3"
   transform="translate(0.0252088,-1.03151)">
					<title
   id="title16">Sheet.5620</title>
					<path
   d="m 32.23,104.69 v -0.12 l -0.29,0.05 c 0.08,0.02 0.18,0.06 0.29,0.07 z m 0.42,1.32 -0.63,-0.1 a 9.551,9.33284 0 0 1 -2.69,-0.88 53.3072,52.0896 0 0 1 -6.72,0.41 C 10.07,105.44 0,101.4 0.12,96.42 v 5.09 c 0,4.98 10.31,9.03 22.49,9.03 a 47.8968,46.8028 -180 0 0 11.74,-1.36 9.62032,9.40058 0 0 1 -1.7,-3.17 z"
   class="st1"
   id="path18"
   inkscape:connector-curvature="0"
   style="fill:#5e9624;stroke:none;stroke-width:34;stroke-linecap:butt" />
				</g>
				<g
   id="shape5621-5"
   transform="translate(0,-5.95196)">
					<title
   id="title21">Sheet.5621</title>
					<path
   d="m 24.02,101.68 a 9.58566,9.36671 0 0 1 5.83,-8.69 52.3808,51.1844 -180 0 0 -7.37,-0.5 C 10.07,92.49 0,96.53 0,101.51 c 0,4.99 10.08,9.03 22.48,9.03 a 52.6424,51.4399 -180 0 0 7.12,-0.47 9.51319,9.29589 0 0 1 -5.58,-8.39 z"
   class="st2"
   id="path23"
   inkscape:connector-curvature="0"
   style="fill:#76bc2d;stroke:none;stroke-width:34;stroke-linecap:butt" />
				</g>
				<g
   id="shape5622-7"
   transform="translate(15.6011,-13.0647)">
					<title
   id="title26">Sheet.5622</title>
					<path
   d="m 8.42,108.79 a 9.45331,9.23739 0 0 1 0.28,-2.21 26.3338,25.7323 -180 0 0 -1.24,-0.03 c -4.12,0 -7.46,0.89 -7.46,1.99 0,1.1 3.34,2 7.46,2 0.39,0 0.77,-0.02 1.14,-0.04 a 9.45331,9.23739 0 0 1 -0.18,-1.71 z"
   class="st1"
   id="path28"
   inkscape:connector-curvature="0"
   style="fill:#5e9624;stroke:none;stroke-width:34;stroke-linecap:butt" />
				</g>
				<g
   id="shape5623-9"
   transform="translate(0.0126044,-24.476)">
					<title
   id="title31">Sheet.5623</title>
					<ellipse
   cx="22.483101"
   cy="101.514"
   rx="22.483101"
   ry="9.0218496"
   class="st3"
   id="ellipse33"
   style="fill:url(#grad0-12);stroke:none;stroke-width:34;stroke-linecap:butt" />
				</g>
				<g
   id="shape5624-13"
   transform="translate(15.6011,-31.6226)">
					<title
   id="title36">Sheet.5624</title>
					<ellipse
   cx="7.4649701"
   cy="108.543"
   rx="7.4649701"
   ry="1.9922"
   class="st4"
   id="ellipse38"
   style="fill:#005ba1;stroke:none;stroke-width:34;stroke-linecap:butt" />
				</g>
				<g
   id="shape5625-15"
   transform="translate(25.3059)">
					<title
   id="title41">Sheet.5625</title>
					<path
   d="m 23.18,95.65 a 8.30946,8.11966 0 0 1 -8.31,8.12 h -1.94 a 3.85695,3.76885 0 0 1 -0.26,-1.35 3.94833,3.85815 0 0 1 0.39,-1.63 h 1.82 a 5.26235,5.14214 -180 1 0 0,-10.28 H 8.23 a 5.24974,5.12983 -180 0 0 -1.21,10.14 8.842,8.64003 -180 0 0 -0.08,3.01 8.30946,8.11966 0 0 1 1.29,-16.13 h 6.64 a 8.30631,8.11658 0 0 1 8.31,8.12 z m 1.29,-1.23 a 9.53839,9.32052 0 0 1 0.1,1.23 8.79789,8.59693 0 0 1 -0.18,1.77 5.24974,5.12983 0 0 1 -1.21,10.14 h -6.65 a 5.2655,5.14522 0 0 1 0,-10.29 h 1.83 a 3.92628,3.83659 -180 0 0 0.39,-1.62 3.85695,3.76885 -180 0 0 -0.26,-1.35 h -1.96 a 8.3098079,8.12 -180 1 0 0,16.24 h 6.65 a 8.30946,8.11966 -180 0 0 1.29,-16.13 z"
   class="st4"
   id="path43"
   inkscape:connector-curvature="0"
   style="fill:#005ba1;stroke:none;stroke-width:34;stroke-linecap:butt" />
				</g>
				<g
   id="shape5626-17"
   transform="translate(0.0126044,-19.5863)">
					<title
   id="title46">Sheet.5626</title>
					<path
   d="m 26.76,108.68 a 9.50688,9.28973 0 0 1 6.76,-2.79 h 6.64 a 9.57936,9.36055 0 0 1 1.77,0.17 6.39989,6.25371 -180 0 0 3.15,-4.31 v -5.33 c 0,4.98 -10.04,9.02 -22.48,9.02 -12.53,0 -22.6,-4.04 -22.48,-9.02 v 5.09 c 0,4.99 10.31,9.03 22.49,9.03 0.94,0 1.86,-0.04 2.78,-0.08 a 9.59827,9.37903 0 0 1 1.37,-1.78 z"
   class="st5"
   id="path48"
   inkscape:connector-curvature="0"
   style="fill:#0078d4;stroke:none;stroke-width:34;stroke-linecap:butt" />
				</g>
			</g>
		</g>
	</g>
</svg>

<?xml version="1.0" encoding="UTF-8" standalone="no"?>
<!DOCTYPE svg PUBLIC "-//W3C//DTD SVG 1.1//EN" "http://www.w3.org/Graphics/SVG/1.1/DTD/svg11.dtd">
<!-- Generated by Microsoft Visio, SVG Export Disk Access.svg Page-1 -->
<svg xmlns="http://www.w3.org/2000/svg" xmlns:xlink="http://www.w3.org/1999/xlink" xmlns:ev="http://www.w3.org/2001/xml-events"
		width="1.7322in" height="1.53521in" viewBox="0 0 124.718 110.535" xml:space="preserve" color-interpolation-filters="sRGB"
		class="st6">
	<style type="text/css">
	<![CDATA[
		.st1 {fill:#5e9624;stroke:none;stroke-linecap:butt;stroke-width:34}
		.st2 {fill:#76bc2d;stroke:none;stroke-linecap:butt;stroke-width:34}
		.st3 {fill:url(#grad0-12);stroke:none;stroke-linecap:butt;stroke-width:34}
		.st4 {fill:#005ba1;stroke:none;stroke-linecap:butt;stroke-width:34}
		.st5 {fill:#0078d4;stroke:none;stroke-linecap:butt;stroke-width:34}
		.st6 {fill:none;fill-rule:evenodd;font-size:12px;overflow:visible;stroke-linecap:square;stroke-miterlimit:3}
	]]>
	</style>

	<defs id="Patterns_And_Gradients">
		<linearGradient id="grad0-12" x1="0" y1="0" x2="1" y2="0" gradientTransform="rotate(76.639126700483 0.5 0.5)">
			<stop offset="0" stop-color="#0078d4" stop-opacity="1"/>
			<stop offset="0.99" stop-color="#127fd9" stop-opacity="1"/>
		</linearGradient>
	</defs>
	<g>
		<title>Page-1</title>
		<g id="group5499-1" transform="translate(34,-34.0157)">
			<title>Disk Access</title>
			<g id="group5500-2">
				<title>Sheet.5500</title>
				<g id="shape5501-3" transform="translate(0.0252088,-1.03151)">
					<title>Sheet.5501</title>
					<path d="M32.23 104.69 L32.23 104.57 L31.94 104.62 C32.02 104.64 32.12 104.68 32.23 104.69 ZM32.65 106.01 L32.02
								 105.91 A9.551 9.33284 0 0 1 29.33 105.03 A53.3072 52.0896 0 0 1 22.61 105.44 C10.07 105.44 0 101.4
								 0.12 96.42 L0.12 101.51 C0.12 106.49 10.43 110.54 22.61 110.54 A47.8968 46.8028 -180 0 0 34.35 109.18
								 A9.62032 9.40058 0 0 1 32.65 106.01 Z" class="st1"/>
				</g>
				<g id="shape5502-5" transform="translate(2.79776E-13,-5.95196)">
					<title>Sheet.5502</title>
					<path d="M24.02 101.68 A9.58566 9.36671 0 0 1 29.85 92.99 A52.3808 51.1844 -180 0 0 22.48 92.49 C10.07 92.49
								 0 96.53 0 101.51 C0 106.5 10.08 110.54 22.48 110.54 A52.6424 51.4399 -180 0 0 29.6 110.07 A9.51319
								 9.29589 0 0 1 24.02 101.68 Z" class="st2"/>
				</g>
				<g id="shape5503-7" transform="translate(15.6011,-13.0647)">
					<title>Sheet.5503</title>
					<path d="M8.42 108.79 A9.45331 9.23739 0 0 1 8.7 106.58 A26.3338 25.7323 -180 0 0 7.46 106.55 C3.34 106.55 0
								 107.44 0 108.54 C0 109.64 3.34 110.54 7.46 110.54 C7.85 110.54 8.23 110.52 8.6 110.5 A9.45331 9.23739
								 0 0 1 8.42 108.79 Z" class="st1"/>
				</g>
				<g id="shape5504-9" transform="translate(0.0126044,-24.476)">
					<title>Sheet.5504</title>
					<ellipse cx="22.4831" cy="101.514" rx="22.4831" ry="9.02185" class="st3"/>
				</g>
				<g id="shape5505-13" transform="translate(15.6011,-31.6226)">
					<title>Sheet.5505</title>
					<ellipse cx="7.46497" cy="108.543" rx="7.46497" ry="1.9922" class="st4"/>
				</g>
				<g id="shape5506-15" transform="translate(25.3059,0)">
					<title>Sheet.5506</title>
					<path d="M23.18 95.65 A8.30946 8.11966 0 0 1 14.87 103.77 L12.93 103.77 A3.85695 3.76885 0 0 1 12.67 102.42 A3.94833
								 3.85815 0 0 1 13.06 100.79 L14.88 100.79 A5.26235 5.14214 -180 1 0 14.88 90.51 L8.23 90.51 A5.24974
								 5.12983 -180 0 0 7.02 100.65 A8.842 8.64003 -180 0 0 6.94 103.66 A8.30946 8.11966 0 0 1 8.23 87.53
								 L14.87 87.53 A8.30631 8.11658 0 0 1 23.18 95.65 ZM24.47 94.42 A9.53839 9.32052 0 0 1 24.57 95.65
								 A8.79789 8.59693 0 0 1 24.39 97.42 A5.24974 5.12983 0 0 1 23.18 107.56 L16.53 107.56 A5.2655 5.14522
								 0 0 1 16.53 97.27 L18.36 97.27 A3.92628 3.83659 -180 0 0 18.75 95.65 A3.85695 3.76885 -180 0 0 18.49
								 94.3 L16.53 94.3 A8.30946 8.11966 -180 1 0 16.53 110.54 L23.18 110.54 A8.30946 8.11966 -180 0 0
								 24.47 94.41 L24.47 94.42 Z" class="st4"/>
				</g>
				<g id="shape5507-17" transform="translate(0.0126044,-19.5863)">
					<title>Sheet.5507</title>
					<path d="M26.76 108.68 A9.50688 9.28973 0 0 1 33.52 105.89 L40.16 105.89 A9.57936 9.36055 0 0 1 41.93 106.06
								 A6.39989 6.25371 -180 0 0 45.08 101.75 L45.08 96.42 C45.08 101.4 35.04 105.44 22.6 105.44 C10.07
								 105.44 0 101.4 0.12 96.42 L0.12 101.51 C0.12 106.5 10.43 110.54 22.61 110.54 C23.55 110.54 24.47
								 110.5 25.39 110.46 A9.59827 9.37903 0 0 1 26.76 108.68 Z" class="st5"/>
				</g>
			</g>
		</g>
	</g>
</svg>
